tokens/sd.svg

<svg width="256" height="256" viewBox="0 0 256 256" fill="none" xmlns="http://www.w3.org/2000/svg">
<path d="M128 256C198.692 256 256 198.692 256 128C256 57.3075 198.692 0 128 0C57.3075 0 0 57.3075 0 128C0 198.692 57.3075 256 128 256Z" fill="#6259D4"/>
<path d="M126.852 191.869L126.822 181.088L153.98 165.105L153.886 133.025L163.667 127.882L164.056 170.723L126.852 191.869Z" fill="white"/>
<path fill-rule="evenodd" clip-rule="evenodd" d="M153.98 165.105L126.822 181.088L126.852 191.869L164.056 170.723L163.667 127.882L153.886 133.025L153.98 165.105ZM154.207 133.218L154.3 165.104C154.301 165.218 154.241 165.323 154.143 165.381L127.143 181.271L127.171 191.32L163.735 170.538L163.352 128.41L154.207 133.218Z" fill="#6259D4"/>
<path d="M134.785 112.611L145.906 106.314L173.184 123.396L173.334 175.037L164.063 170.734L163.673 127.894L134.785 112.611Z" fill="white"/>
<path fill-rule="evenodd" clip-rule="evenodd" d="M163.673 127.894L164.063 170.734L173.334 175.037L173.184 123.396L145.906 106.314L134.785 112.611L163.673 127.894ZM135.451 112.601L163.823 127.611C163.927 127.666 163.992 127.773 163.993 127.891L164.381 170.529L173.013 174.535L172.865 123.574L145.898 106.687L135.451 112.601Z" fill="#6259D4"/>
<path d="M126.443 53.3335L173.06 79.8728L173.094 90.9255L126.49 64.9081L126.443 53.3335Z" fill="white"/>
<path fill-rule="evenodd" clip-rule="evenodd" d="M126.443 53.3335L126.49 64.9081L173.094 90.9255L173.06 79.8728L126.443 53.3335ZM126.766 53.8852L126.81 64.7198L172.773 90.3795L172.741 80.0592L126.766 53.8852Z" fill="#6259D4"/>
<path d="M80.1584 134.322L80 80.4074L126.432 53.3335L126.48 64.9081L88.7187 86.0335L88.5731 128.106L80.1584 134.322Z" fill="white"/>
<path fill-rule="evenodd" clip-rule="evenodd" d="M88.7187 86.0335L126.48 64.9081L126.432 53.3335L80 80.4074L80.1584 134.322L88.5731 128.106L88.7187 86.0335ZM88.2536 127.944L88.3987 86.0324C88.3991 85.9169 88.4617 85.8106 88.5624 85.7542L126.159 64.7209L126.115 53.8892L80.3205 80.5909L80.4766 133.689L88.2536 127.944Z" fill="#6259D4"/>
<path d="M107.511 149.374L80.1562 134.324L88.5709 128.108L135.44 154.885L107.58 170.601L98.2445 175.794L126.85 191.879L164.054 170.733L173.325 175.035L126.619 202.66L80.2804 176.371L117.215 154.711L107.511 149.374Z" fill="white"/>
<path fill-rule="evenodd" clip-rule="evenodd" d="M107.58 170.601L135.44 154.885L88.5709 128.108L80.1562 134.324L117.215 154.711L80.2804 176.371L126.619 202.66L173.325 175.035L164.054 170.733L126.85 191.879L98.2445 175.794L107.58 170.601ZM164.069 171.092L127.008 192.157C126.91 192.213 126.791 192.213 126.693 192.158L98.0877 176.073C97.9866 176.016 97.9242 175.909 97.9245 175.794C97.9248 175.678 97.9877 175.571 98.0889 175.515L107.423 170.322L134.792 154.884L88.5932 128.49L80.7483 134.285L107.666 149.093L117.369 154.431C117.47 154.486 117.533 154.592 117.535 154.707C117.536 154.822 117.476 154.929 117.377 154.987L80.9208 176.367L126.615 202.29L172.639 175.069L164.069 171.092Z" fill="#6259D4"/>
<path d="M88.7207 86.0458L126.482 64.9204L173.085 90.9378L145.902 106.323L134.781 112.619L163.669 127.902L153.888 133.044L116.808 112.11L153.764 90.4499L144.947 85.4178L126.512 74.8955L99.0623 90.6069L88.7207 86.0458Z" fill="white"/>
<path fill-rule="evenodd" clip-rule="evenodd" d="M173.085 90.9378L126.482 64.9204L88.7207 86.0458L99.0623 90.6069L126.512 74.8955L153.764 90.4499L116.808 112.11L153.888 133.044L163.669 127.902L134.781 112.619L173.085 90.9378ZM162.983 127.901L134.631 112.902C134.528 112.847 134.462 112.741 134.461 112.624C134.459 112.507 134.521 112.398 134.623 112.341L145.744 106.044L172.432 90.9397L126.482 65.287L89.4368 86.0119L99.0436 90.2489L126.353 74.6177C126.451 74.5614 126.572 74.5614 126.67 74.6175L153.923 90.172C154.022 90.2286 154.083 90.3338 154.084 90.4481C154.085 90.5623 154.024 90.6682 153.926 90.726L117.45 112.105L153.894 132.68L162.983 127.901Z" fill="#6259D4"/>
<path d="M98.252 175.789L107.587 170.596L126.827 181.093L126.857 191.874L98.252 175.789Z" fill="white"/>
<path fill-rule="evenodd" clip-rule="evenodd" d="M98.252 175.789L126.857 191.874L126.827 181.093L107.587 170.596L98.252 175.789ZM98.9075 175.791L126.536 191.326L126.508 181.283L107.589 170.962L98.9075 175.791Z" fill="#6259D4"/>
<path d="M80.2804 176.368L80.2461 164.785L107.511 149.371L117.215 154.708L80.2804 176.368Z" fill="white"/>
<path fill-rule="evenodd" clip-rule="evenodd" d="M80.2804 176.368L117.215 154.708L107.511 149.371L80.2461 164.785L80.2804 176.368ZM80.5987 175.81L116.567 154.717L107.513 149.737L80.5666 164.971L80.5987 175.81Z" fill="#6259D4"/>
<path d="M116.809 112.109L116.92 101.073L144.947 85.417L153.764 90.4491L116.809 112.109Z" fill="white"/>
<path fill-rule="evenodd" clip-rule="evenodd" d="M116.809 112.109L153.764 90.4491L144.947 85.417L116.92 101.073L116.809 112.109ZM117.134 111.547L153.125 90.4528L144.946 85.7845L117.238 101.262L117.134 111.547Z" fill="#6259D4"/>
<path d="M88.5723 128.087L88.7179 86.0142L99.0595 90.5753L99.1537 123.589L135.407 143.582L135.442 154.864L88.5723 128.087Z" fill="white"/>
<path fill-rule="evenodd" clip-rule="evenodd" d="M99.1537 123.589L99.0595 90.5753L88.7179 86.0142L88.5723 128.087L135.442 154.864L135.407 143.582L99.1537 123.589ZM135.088 143.771L98.9992 123.869C98.8974 123.813 98.8341 123.706 98.8337 123.59L98.7401 90.7841L89.0362 86.5043L88.8929 127.901L135.12 154.311L135.088 143.771Z" fill="#6259D4"/>
</svg>

<svg width="256" height="256" fill="none" xmlns="http://www.w3.org/2000/svg"><path d="M128 256c70.692 0 128-57.308 128-128C256 57.308 198.692 0 128 0 57.308 0 0 57.307 0 128c0 70.692 57.307 128 128 128Z" fill="#6259D4"/><path d="m126.852 191.869-.03-10.781 27.158-15.983-.094-32.08 9.781-5.143.389 42.841-37.204 21.146Z" fill="#fff"/><path fill-rule="evenodd" clip-rule="evenodd" d="m153.98 165.105-27.158 15.983.03 10.781 37.204-21.146-.389-42.841-9.781 5.143.094 32.08Zm.227-31.887.093 31.886a.318.318 0 0 1-.157.277l-27 15.89.028 10.049 36.564-20.782-.383-42.128-9.145 4.808Z" fill="#6259D4"/><path d="m134.785 112.611 11.121-6.297 27.278 17.082.15 51.641-9.271-4.303-.39-42.84-28.888-15.283Z" fill="#fff"/><path fill-rule="evenodd" clip-rule="evenodd" d="m163.673 127.894.39 42.84 9.271 4.303-.15-51.641-27.278-17.082-11.121 6.297 28.888 15.283Zm-28.222-15.293 28.372 15.01a.319.319 0 0 1 .17.28l.388 42.638 8.632 4.006-.148-50.961-26.967-16.887-10.447 5.914Z" fill="#6259D4"/><path d="m126.443 53.334 46.617 26.539.034 11.052-46.604-26.017-.047-11.575Z" fill="#fff"/><path fill-rule="evenodd" clip-rule="evenodd" d="m126.443 53.334.047 11.574 46.604 26.017-.034-11.052-46.617-26.54Zm.323.551.044 10.835 45.963 25.66-.032-10.32-45.975-26.175Z" fill="#6259D4"/><path d="M80.158 134.322 80 80.407l46.432-27.073.048 11.574-37.761 21.126-.146 42.072-8.415 6.216Z" fill="#fff"/><path fill-rule="evenodd" clip-rule="evenodd" d="m88.719 86.034 37.761-21.126-.048-11.575L80 80.407l.158 53.915 8.415-6.216.146-42.072Zm-.465 41.91.145-41.912a.32.32 0 0 1 .163-.278l37.597-21.033-.044-10.832-45.794 26.702.156 53.098 7.777-5.745Z" fill="#6259D4"/><path d="m107.511 149.374-27.355-15.05 8.415-6.216 46.869 26.777-27.86 15.716-9.335 5.193 28.605 16.085 37.204-21.146 9.271 4.302-46.706 27.625-46.339-26.289 36.935-21.66-9.704-5.337Z" fill="#fff"/><path fill-rule="evenodd" clip-rule="evenodd" d="m107.58 170.601 27.86-15.716-46.87-26.777-8.414 6.216 37.059 20.387-36.935 21.66 46.339 26.289 46.706-27.625-9.271-4.302-37.204 21.146-28.605-16.085 9.335-5.193Zm56.489.491-37.061 21.065a.319.319 0 0 1-.315.001l-28.605-16.085a.32.32 0 0 1 0-.558l9.335-5.193 27.369-15.438-46.199-26.394-7.845 5.795 26.918 14.808 9.703 5.338a.32.32 0 0 1 .008.556l-36.456 21.38 45.694 25.923 46.024-27.221-8.57-3.977Z" fill="#6259D4"/><path d="m88.72 86.046 37.762-21.126 46.603 26.018-27.183 15.385-11.121 6.296 28.888 15.283-9.781 5.142-37.08-20.934 36.956-21.66-8.817-5.032-18.435-10.523-27.45 15.712-10.341-4.561Z" fill="#fff"/><path fill-rule="evenodd" clip-rule="evenodd" d="M173.085 90.938 126.482 64.92 88.721 86.046l10.341 4.56 27.45-15.71 27.252 15.554-36.956 21.66 37.08 20.934 9.781-5.142-28.888-15.283 38.304-21.681ZM162.983 127.9l-28.352-14.999a.319.319 0 0 1-.008-.561l11.121-6.297 26.688-15.104-45.95-25.653-37.045 20.725 9.607 4.237 27.309-15.631a.32.32 0 0 1 .317 0l27.253 15.554a.32.32 0 0 1 .003.554l-36.476 21.379 36.444 20.575 9.089-4.779Z" fill="#6259D4"/><path d="m98.252 175.789 9.335-5.193 19.24 10.497.03 10.781-28.605-16.085Z" fill="#fff"/><path fill-rule="evenodd" clip-rule="evenodd" d="m98.252 175.789 28.605 16.085-.03-10.781-19.24-10.497-9.335 5.193Zm.656.002 27.628 15.535-.028-10.043-18.919-10.321-8.681 4.829Z" fill="#6259D4"/><path d="m80.28 176.368-.034-11.583 27.265-15.414 9.704 5.337-36.935 21.66Z" fill="#fff"/><path fill-rule="evenodd" clip-rule="evenodd" d="m80.28 176.368 36.935-21.66-9.704-5.337-27.265 15.414.034 11.583Zm.319-.558 35.968-21.093-9.054-4.98-26.946 15.234.032 10.839Z" fill="#6259D4"/><path d="m116.809 112.109.111-11.036 28.027-15.656 8.817 5.032-36.955 21.66Z" fill="#fff"/><path fill-rule="evenodd" clip-rule="evenodd" d="m116.809 112.109 36.955-21.66-8.817-5.032-28.027 15.656-.111 11.036Zm.325-.562 35.991-21.094-8.179-4.669-27.708 15.478-.104 10.285Z" fill="#6259D4"/><path d="m88.572 128.087.146-42.073 10.341 4.561.095 33.014 36.253 19.993.035 11.282-46.87-26.777Z" fill="#fff"/><path fill-rule="evenodd" clip-rule="evenodd" d="m99.154 123.589-.094-33.014-10.342-4.56-.146 42.072 46.87 26.777-.035-11.282-36.253-19.993Zm35.934 20.182-36.089-19.902a.32.32 0 0 1-.165-.279l-.094-32.806-9.704-4.28-.143 41.397 46.227 26.41-.032-10.54Z" fill="#6259D4"/></svg>data:image/svg+xml,%3Csvg width='256' height='256' fill='none' xmlns='http://www.w3.org/2000/svg'%3E%3Cpath d='M128 256c70.692 0 128-57.308 128-128C256 57.308 198.692 0 128 0 57.308 0 0 57.307 0 128c0 70.692 57.307 128 128 128Z' fill='%236259D4'/%3E%3Cpath d='m126.852 191.869-.03-10.781 27.158-15.983-.094-32.08 9.781-5.143.389 42.841-37.204 21.146Z' fill='%23fff'/%3E%3Cpath fill-rule='evenodd' clip-rule='evenodd' d='m153.98 165.105-27.158 15.983.03 10.781 37.204-21.146-.389-42.841-9.781 5.143.094 32.08Zm.227-31.887.093 31.886a.318.318 0 0 1-.157.277l-27 15.89.028 10.049 36.564-20.782-.383-42.128-9.145 4.808Z' fill='%236259D4'/%3E%3Cpath d='m134.785 112.611 11.121-6.297 27.278 17.082.15 51.641-9.271-4.303-.39-42.84-28.888-15.283Z' fill='%23fff'/%3E%3Cpath fill-rule='evenodd' clip-rule='evenodd' d='m163.673 127.894.39 42.84 9.271 4.303-.15-51.641-27.278-17.082-11.121 6.297 28.888 15.283Zm-28.222-15.293 28.372 15.01a.319.319 0 0 1 .17.28l.388 42.638 8.632 4.006-.148-50.961-26.967-16.887-10.447 5.914Z' fill='%236259D4'/%3E%3Cpath d='m126.443 53.334 46.617 26.539.034 11.052-46.604-26.017-.047-11.575Z' fill='%23fff'/%3E%3Cpath fill-rule='evenodd' clip-rule='evenodd' d='m126.443 53.334.047 11.574 46.604 26.017-.034-11.052-46.617-26.54Zm.323.551.044 10.835 45.963 25.66-.032-10.32-45.975-26.175Z' fill='%236259D4'/%3E%3Cpath d='M80.158 134.322 80 80.407l46.432-27.073.048 11.574-37.761 21.126-.146 42.072-8.415 6.216Z' fill='%23fff'/%3E%3Cpath fill-rule='evenodd' clip-rule='evenodd' d='m88.719 86.034 37.761-21.126-.048-11.575L80 80.407l.158 53.915 8.415-6.216.146-42.072Zm-.465 41.91.145-41.912a.32.32 0 0 1 .163-.278l37.597-21.033-.044-10.832-45.794 26.702.156 53.098 7.777-5.745Z' fill='%236259D4'/%3E%3Cpath d='m107.511 149.374-27.355-15.05 8.415-6.216 46.869 26.777-27.86 15.716-9.335 5.193 28.605 16.085 37.204-21.146 9.271 4.302-46.706 27.625-46.339-26.289 36.935-21.66-9.704-5.337Z' fill='%23fff'/%3E%3Cpath fill-rule='evenodd' clip-rule='evenodd' d='m107.58 170.601 27.86-15.716-46.87-26.777-8.414 6.216 37.059 20.387-36.935 21.66 46.339 26.289 46.706-27.625-9.271-4.302-37.204 21.146-28.605-16.085 9.335-5.193Zm56.489.491-37.061 21.065a.319.319 0 0 1-.315.001l-28.605-16.085a.32.32 0 0 1 0-.558l9.335-5.193 27.369-15.438-46.199-26.394-7.845 5.795 26.918 14.808 9.703 5.338a.32.32 0 0 1 .008.556l-36.456 21.38 45.694 25.923 46.024-27.221-8.57-3.977Z' fill='%236259D4'/%3E%3Cpath d='m88.72 86.046 37.762-21.126 46.603 26.018-27.183 15.385-11.121 6.296 28.888 15.283-9.781 5.142-37.08-20.934 36.956-21.66-8.817-5.032-18.435-10.523-27.45 15.712-10.341-4.561Z' fill='%23fff'/%3E%3Cpath fill-rule='evenodd' clip-rule='evenodd' d='M173.085 90.938 126.482 64.92 88.721 86.046l10.341 4.56 27.45-15.71 27.252 15.554-36.956 21.66 37.08 20.934 9.781-5.142-28.888-15.283 38.304-21.681ZM162.983 127.9l-28.352-14.999a.319.319 0 0 1-.008-.561l11.121-6.297 26.688-15.104-45.95-25.653-37.045 20.725 9.607 4.237 27.309-15.631a.32.32 0 0 1 .317 0l27.253 15.554a.32.32 0 0 1 .003.554l-36.476 21.379 36.444 20.575 9.089-4.779Z' fill='%236259D4'/%3E%3Cpath d='m98.252 175.789 9.335-5.193 19.24 10.497.03 10.781-28.605-16.085Z' fill='%23fff'/%3E%3Cpath fill-rule='evenodd' clip-rule='evenodd' d='m98.252 175.789 28.605 16.085-.03-10.781-19.24-10.497-9.335 5.193Zm.656.002 27.628 15.535-.028-10.043-18.919-10.321-8.681 4.829Z' fill='%236259D4'/%3E%3Cpath d='m80.28 176.368-.034-11.583 27.265-15.414 9.704 5.337-36.935 21.66Z' fill='%23fff'/%3E%3Cpath fill-rule='evenodd' clip-rule='evenodd' d='m80.28 176.368 36.935-21.66-9.704-5.337-27.265 15.414.034 11.583Zm.319-.558 35.968-21.093-9.054-4.98-26.946 15.234.032 10.839Z' fill='%236259D4'/%3E%3Cpath d='m116.809 112.109.111-11.036 28.027-15.656 8.817 5.032-36.955 21.66Z' fill='%23fff'/%3E%3Cpath fill-rule='evenodd' clip-rule='evenodd' d='m116.809 112.109 36.955-21.66-8.817-5.032-28.027 15.656-.111 11.036Zm.325-.562 35.991-21.094-8.179-4.669-27.708 15.478-.104 10.285Z' fill='%236259D4'/%3E%3Cpath d='m88.572 128.087.146-42.073 10.341 4.561.095 33.014 36.253 19.993.035 11.282-46.87-26.777Z' fill='%23fff'/%3E%3Cpath fill-rule='evenodd' clip-rule='evenodd' d='m99.154 123.589-.094-33.014-10.342-4.56-.146 42.072 46.87 26.777-.035-11.282-36.253-19.993Zm35.934 20.182-36.089-19.902a.32.32 0 0 1-.165-.279l-.094-32.806-9.704-4.28-.143 41.397 46.227 26.41-.032-10.54Z' fill='%236259D4'/%3E%3C/svg%3E
